src/cmd/lc_sortdescending.svg

<svg viewBox="0 0 24 24" xmlns="http://www.w3.org/2000/svg"><path d="m6.1113281 3.9003906v.8144532h2.0722657l-2.1835938 3.2539062v.7324219h3.828125v-.8515625h-2.2460938l2.1738282-3.2929688v-.65625zm7.8886719 5.9921875v8.2929689l-2.292969-2.292969-.707031.707031 3.292969 3.292969.207031.207031.207031-.207031 3.292969-3.292969-.707031-.707031-2.292969 2.292969v-8.2929689zm-4 1.4609379v3.455078h.007812v-3.369141c0-.030595-.006563-.05626-.007812-.085937z" fill="#232629"/><path d="m8.0957031 9.9023438c-.78324.018-1.3851066.1550692-1.8222656.3554682l.2460937.900391c.20947-.073 1.0023169-.326172 1.4667969-.326172h.0625c.64663.027.6933594.26286.6933594.81836v.21875l-.3378906.054687c-1.56649.2274-2.4042969.418894-2.4042969 1.621094 0 .8379.6107106 1.357422 1.4941406 1.357422.6102 0 1.0100929-.255463 1.4199219-.601563l.1269531.509766h.9667964v-3.369141c0-1.0292-.711787-1.5390622-1.804687-1.5390622zm.6464844 2.6777342v1.119141c-.336971.2277-.5921369.392578-1.0292969.392578-.39162 0-.5839843-.245797-.5839844-.591797 0-.6558.5741107-.765034 1.2753907-.865234z" fill="#762572"/></svg>

<?xml version="1.0" encoding="UTF-8" standalone="no"?>
<svg
   xmlns:dc="http://purl.org/dc/elements/1.1/"
   xmlns:cc="http://creativecommons.org/ns#"
   xmlns:rdf="http://www.w3.org/1999/02/22-rdf-syntax-ns#"
   xmlns:svg="http://www.w3.org/2000/svg"
   xmlns="http://www.w3.org/2000/svg"
   xmlns:sodipodi="http://sodipodi.sourceforge.net/DTD/sodipodi-0.dtd"
   xmlns:inkscape="http://www.inkscape.org/namespaces/inkscape"
   viewBox="0 0 24 24"
   version="1.1"
   id="svg6"
   sodipodi:docname="lc_sortdescending.svg"
   inkscape:version="0.92.4 (5da689c313, 2019-01-14)"
   inkscape:export-filename="/home/jupiter007/Libreoffice yaru theme fullcolor/build/cmd/lc_sortdescending.png"
   inkscape:export-xdpi="96"
   inkscape:export-ydpi="96">
  <metadata
     id="metadata12">
    <rdf:RDF>
      <cc:Work
         rdf:about="">
        <dc:format>image/svg+xml</dc:format>
        <dc:type
           rdf:resource="http://purl.org/dc/dcmitype/StillImage" />
      </cc:Work>
    </rdf:RDF>
  </metadata>
  <defs
     id="defs10" />
  <sodipodi:namedview
     pagecolor="#ffffff"
     bordercolor="#666666"
     borderopacity="1"
     objecttolerance="10"
     gridtolerance="10"
     guidetolerance="10"
     inkscape:pageopacity="0"
     inkscape:pageshadow="2"
     inkscape:window-width="1920"
     inkscape:window-height="1011"
     id="namedview8"
     showgrid="true"
     inkscape:zoom="27.812867"
     inkscape:cx="11.588502"
     inkscape:cy="7.228277"
     inkscape:window-x="0"
     inkscape:window-y="32"
     inkscape:window-maximized="1"
     inkscape:current-layer="svg6">
    <inkscape:grid
       type="xygrid"
       id="grid822" />
  </sodipodi:namedview>
  <path
     style="fill:#000000;stroke:#ffffff;stroke-width:2;stroke-miterlimit:4;stroke-dasharray:none;stroke-linejoin:round"
     id="path839"
     d="M 6.1113281,3.9003906 V 4.7148438 H 8.1835938 L 6,7.96875 V 8.7011719 H 9.828125 V 7.8496094 H 7.5820312 L 9.7558594,4.5566406 v -0.65625 z" />
  <path
     id="path841"
     d="m 10,11.353516 v 3.455078 h 0.0078 v -3.369141 c 0,-0.03059 -0.0066,-0.05626 -0.0078,-0.08594 z"
     style="stroke:#ffffff;stroke-width:2;stroke-miterlimit:4;stroke-dasharray:none;stroke-linejoin:round" />
  <path
     id="path843"
     fill="#762572"
     d="m8.0957031 9.9023438c-.78324.018-1.3851066.1550692-1.8222656.3554682l.2460937.900391c.20947-.073 1.0023169-.326172 1.4667969-.326172h.0625c.64663.027.6933594.26286.6933594.81836v.21875l-.3378906.054687c-1.56649.2274-2.4042969.418894-2.4042969 1.621094 0 .8379.6107106 1.357422 1.4941406 1.357422.6102 0 1.0100929-.255463 1.4199219-.601563l.1269531.509766h.9667964v-3.369141c0-1.0292-.711787-1.5390622-1.804687-1.5390622zm.6464844 2.6777342v1.119141c-.336971.2277-.5921369.392578-1.0292969.392578-.39162 0-.5839843-.245797-.5839844-.591797 0-.6558.5741107-.765034 1.2753907-.865234z"
     style="stroke:#ffffff;stroke-width:2;stroke-miterlimit:4;stroke-dasharray:none;stroke-linejoin:round" />
  <path
     d="M 6.1113281,3.9003906 V 4.7148438 H 8.1835938 L 6,7.96875 V 8.7011719 H 9.828125 V 7.8496094 H 7.5820312 L 9.7558594,4.5566406 v -0.65625 z"
     id="path837"
     style="fill:#000000" />
  <path
     d="m 10,11.353516 v 3.455078 h 0.0078 v -3.369141 c 0,-0.03059 -0.0066,-0.05626 -0.0078,-0.08594 z"
     id="path2" />
  <path
     d="m8.0957031 9.9023438c-.78324.018-1.3851066.1550692-1.8222656.3554682l.2460937.900391c.20947-.073 1.0023169-.326172 1.4667969-.326172h.0625c.64663.027.6933594.26286.6933594.81836v.21875l-.3378906.054687c-1.56649.2274-2.4042969.418894-2.4042969 1.621094 0 .8379.6107106 1.357422 1.4941406 1.357422.6102 0 1.0100929-.255463 1.4199219-.601563l.1269531.509766h.9667964v-3.369141c0-1.0292-.711787-1.5390622-1.804687-1.5390622zm.6464844 2.6777342v1.119141c-.336971.2277-.5921369.392578-1.0292969.392578-.39162 0-.5839843-.245797-.5839844-.591797 0-.6558.5741107-.765034 1.2753907-.865234z"
     fill="#762572"
     id="path4" />
  <path
     inkscape:connector-curvature="0"
     id="path856"
     d="m 16,20 -3,-4 h 2 V 8 h 2 v 8 h 2 z"
     style="opacity:0.6;fill:#000000;fill-opacity:1;stroke:#000000;stroke-width:2;stroke-linecap:butt;stroke-linejoin:round;stroke-miterlimit:4;stroke-dasharray:none;stroke-opacity:1"
     sodipodi:nodetypes="cccccccc" />
  <path
     inkscape:connector-curvature="0"
     style="fill:#ffffff;fill-opacity:1;stroke:none;stroke-width:1px;stroke-linecap:butt;stroke-linejoin:miter;stroke-opacity:1"
     d="m 16,20 -3,-4 h 2 V 8 h 2 v 8 h 2 z"
     id="path834"
     sodipodi:nodetypes="cccccccc" />
</svg>
